!!!SOCIAL_FUNCTION:	songs with the corn dance
!!!PDT:	1956
!!!OTL: No_1_Buffalo_Dance_Song_(a).krn
!!!LANG: Non-Tone
!!!LING_GROUP: Muskogean
!!!REG: Florida
**kern
*staff1
=1-
*clefF4
*k[b-e-a-d-g-]
*M3/4
4.B-\
8B-\
8B-\L
8B-\J
=2||
*M2/4
(4.B-\
8F\)
=3
(8.B-\L
16F\Jk)
8B-\
8r
=4
(8.B-\L
16F\Jk)
8B-\
16r
16B-\
=5
4B-\
8B-\L
8F\J
=6
12B-\L
[12F\
12F\J]
4F\
=7
16B-\LL
16B-\J
8A-\J
16B-\LL
16A-\J
8F\J
=8
16A-\LK
8.F\J
8F\L
8E-\J
=9
16F\LL
16E-\
16E-\
16E-\JJ
8E-\
8r
=10
[12E-\L
12E-\]
12E-\J
4E-\
=11
12F\L
12E-\
12E-\J
8E-\
8r
=12||
*M3/4
16E-\LK
8.E-\J
8E-\L
[8B-\J
4B-\]
=13||
*M2/4
8B-\L
8B-\J
8B-\L
8B-\J
=14
2B-\
==
*-
